X:42
T: Gruene Reben auf hohen Bergen,
N: D0044
O: Europa, Mitteleuropa, Lothringen, Halsdorf ( Kr. Diedenhofen )
N: Inzipit = Variante zum Lied
R: Liebes - Lied
M: 3/4
L: 1/16
K: G
D3G | G2D2D2D2G2A2 | B2A2G4
B3c | d4c2B2(3G2A2B2 | A4z4
G4A2B2 | B3BB3d(3d2c2B2 | (3B2A2B2A4
B3A | G4G3A(3G2F2E2 | D3AA4
B3A | G2A2B2A2G3F | G4z4

@@@ Tune index: 2564
